icons/3_Generic/Gaming.svg

<svg xmlns="http://www.w3.org/2000/svg" width="1024" height="1024" fill="none">
   <g clip-path="url(#a)">
      <path fill="#8C72BD" d="M512 1024c282.77 0 512-229.23 512-512S794.77 0 512 0 0 229.23 0 512s229.23 512 512 512Z"/>
      <path fill="#fff" d="M641.47 455.44h-64.74c-8.94 0-16.19-7.25-16.19-16.19 0-8.94 7.25-16.19 16.19-16.19h64.74c8.94 0 16.19 7.25 16.19 16.19 0 8.94-7.25 16.19-16.19 16.19Zm-194.23-32.37h-26.98v-26.98c0-8.94-7.25-16.19-16.19-16.19-8.94 0-16.19 7.25-16.19 16.19v26.98H360.9c-8.94 0-16.19 7.25-16.19 16.19 0 8.94 7.25 16.19 16.19 16.19h26.98v26.98c0 8.94 7.25 16.19 16.19 16.19 8.94 0 16.19-7.25 16.19-16.19v-26.98h26.98c8.94 0 16.19-7.25 16.19-16.19 0-8.94-7.25-16.19-16.19-16.19Zm366.45 273.81A91.721 91.721 0 0 1 738.591 736a92.007 92.007 0 0 1-64.741-26.84l-.699-.76-108.88-123.47H459.71L350.97 708.38l-.84.65a91.75 91.75 0 0 1-64.739 26.98c-50.66-.03-91.691-41.13-91.661-91.78 0-5.32.47-10.64 1.4-15.88v-.27l44.13-226.9C252.37 326.52 317.2 272.05 393 272.02h237.69c75.581.1 140.31 54.14 153.901 128.49v.51l44.269 227.09v.3a91.027 91.027 0 0 1-15.159 68.49l-.011-.02ZM630.68 552.55c68.53 0 124.091-55.56 124.091-124.09S699.21 304.37 630.68 304.37H392.99c-60.13.05-111.53 43.28-121.88 102.51-.01.09-.01.18 0 .27l-44.19 226.96c-5.62 32.29 16 63.03 48.29 68.65a59.345 59.345 0 0 0 51.82-16.18l113.3-128.54c3.09-3.45 7.51-5.42 12.14-5.4l178.21-.08v-.01Zm166.37 81.55-26.409-135.83c-26.49 53.05-80.661 86.58-139.961 86.65h-23.279l89.539 101.65c23.35 23 60.93 22.71 83.93-.65a59.336 59.336 0 0 0 16.18-51.82Z"/>
   </g>
   <defs>
      <clipPath id="a">
         <path fill="#fff" d="M0 0h1024v1024H0z"/>
      </clipPath>
   </defs>
</svg>

<svg width="1024" height="1024" viewBox="0 0 1024 1024" fill="none" xmlns="http://www.w3.org/2000/svg">
<g clip-path="url(#clip0_3_395)">
<path d="M512 1024C794.77 1024 1024 794.77 1024 512C1024 229.23 794.77 0 512 0C229.23 0 0 229.23 0 512C0 794.77 229.23 1024 512 1024Z" fill="#8C72BD"/>
<path d="M641.47 455.44H576.73C567.79 455.44 560.54 448.19 560.54 439.25C560.54 430.31 567.79 423.06 576.73 423.06H641.47C650.41 423.06 657.66 430.31 657.66 439.25C657.66 448.19 650.41 455.44 641.47 455.44ZM447.24 423.07H420.26V396.09C420.26 387.15 413.01 379.9 404.07 379.9C395.13 379.9 387.88 387.15 387.88 396.09V423.07H360.9C351.96 423.07 344.71 430.32 344.71 439.26C344.71 448.2 351.96 455.45 360.9 455.45H387.88V482.43C387.88 491.37 395.13 498.62 404.07 498.62C413.01 498.62 420.26 491.37 420.26 482.43V455.45H447.24C456.18 455.45 463.43 448.2 463.43 439.26C463.43 430.32 456.18 423.07 447.24 423.07ZM813.69 696.88C805.237 708.955 793.998 718.815 780.925 725.625C767.852 732.435 753.331 735.994 738.591 736C714.315 735.945 691.044 726.297 673.85 709.16L673.151 708.4L564.271 584.93H459.71L350.97 708.38L350.13 709.03C332.975 726.242 309.692 735.945 285.391 736.01C234.731 735.98 193.7 694.88 193.73 644.23C193.73 638.91 194.2 633.59 195.13 628.35V628.08L239.26 401.18C252.37 326.52 317.2 272.05 393 272.02H630.69C706.271 272.12 771 326.16 784.591 400.51V401.02L828.86 628.11V628.41C833.16 652.35 827.701 677.01 813.701 696.9L813.69 696.88ZM630.68 552.55C699.21 552.55 754.771 496.99 754.771 428.46C754.771 359.93 699.21 304.37 630.68 304.37H392.99C332.86 304.42 281.46 347.65 271.11 406.88C271.1 406.97 271.1 407.06 271.11 407.15L226.92 634.11C221.3 666.4 242.92 697.14 275.21 702.76C284.512 704.38 294.066 703.757 303.079 700.943C312.092 698.129 320.303 693.205 327.03 686.58L440.33 558.04C443.42 554.59 447.84 552.62 452.47 552.64L630.68 552.56V552.55ZM797.05 634.1L770.641 498.27C744.151 551.32 689.98 584.85 630.68 584.92H607.401L696.94 686.57C720.29 709.57 757.87 709.28 780.87 685.92C787.496 679.192 792.42 670.981 795.234 661.968C798.048 652.956 798.671 643.401 797.05 634.1Z" fill="white"/>
</g>
<defs>
<clipPath id="clip0_3_395">
<rect width="1024" height="1024" fill="white"/>
</clipPath>
</defs>
</svg>
